lib/svgs/file.svg

<svg xmlns="http://www.w3.org/2000/svg" viewBox="0 0 20 20">
    <path fill="#000" fill-rule="evenodd" d="M16.331 7.307l-4.838-4.838A1.6 1.6 0 0 0 10.361 2H5.6C4.72 2 4 2.72 4 3.6v12.8c0 .88.72 1.6 1.6 1.6h9.6c.88 0 1.6-.72 1.6-1.6V8.439a1.6 1.6 0 0 0-.469-1.132M15.2 16.8H5.6a.405.405 0 0 1-.4-.4V3.6c0-.217.183-.4.4-.4h4.401v3.883c0 .917.75 1.667 1.667 1.667H15.6v7.65c0 .217-.183.4-.4.4M11.201 3.874l3.676 3.676h-3.209a.473.473 0 0 1-.467-.467V3.874"/>
</svg>

<?xml version="1.0" encoding="UTF-8" standalone="no"?>
<svg width="20px" height="20px" viewBox="0 0 20 20" version="1.1" xmlns="http://www.w3.org/2000/svg" xmlns:xlink="http://www.w3.org/1999/xlink">
    <defs></defs>
    <g id="Icons" stroke="none" stroke-width="1" fill="none" fill-rule="evenodd">
        <g id="Web" transform="translate(-49.000000, -1564.000000)" fill="#000000">
            <g id="file/file" transform="translate(49.000000, 1564.000000)">
                <path d="M16.331,7.307 L11.493,2.469 C11.193,2.169 10.786,2 10.361,2 L5.6,2 C4.72,2 4,2.72 4,3.6 L4,16.4 C4,17.28 4.72,18 5.6,18 L15.2,18 C16.08,18 16.8,17.28 16.8,16.4 L16.8,8.439 C16.8,8.014 16.631,7.607 16.331,7.307 L16.331,7.307 L16.331,7.307 M15.2,16.8 L5.6,16.8 C5.383,16.8 5.2,16.617 5.2,16.4 L5.2,3.6 C5.2,3.383 5.383,3.2 5.6,3.2 L10.001,3.2 L10.001,7.083 C10.001,8 10.751,8.75 11.668,8.75 L15.6,8.75 L15.6,16.4 C15.6,16.617 15.417,16.8 15.2,16.8 L15.2,16.8 L15.2,16.8 M11.201,3.874 L14.877,7.55 L11.668,7.55 C11.415,7.55 11.201,7.336 11.201,7.083 L11.201,3.874 L11.201,3.874 L11.201,3.874" id="Shape"></path>
            </g>
        </g>
    </g>
</svg>
